svgs/sharp-solid/info.svg

<svg xmlns="http://www.w3.org/2000/svg" viewBox="0 0 192 512"><!--! Font Awesome Pro 6.6.0 by @fontawesome - https://fontawesome.com License - https://fontawesome.com/license (Commercial License) Copyright 2024 Fonticons, Inc. --><path d="M128 32l0 80-80 0 0-80 80 0zM0 192l32 0 64 0 32 0 0 32 0 224 32 0 32 0 0 64-32 0-32 0-64 0-32 0L0 512l0-64 32 0 32 0 0-192-32 0L0 256l0-64z"/></svg>

<svg xmlns="http://www.w3.org/2000/svg" viewBox="0 0 192 512"><!--! Font Awesome Pro 6.4.2 by @fontawesome - https://fontawesome.com License - https://fontawesome.com/license (Commercial License) Copyright 2023 Fonticons, Inc. --><path d="M128 32v80H48V32h80zM0 192H32 96h32v32V448h32 32v64H160 128 64 32 0V448H32 64V256H32 0V192z"/></svg>
